folder-refresh-outline.svg

<svg fill="currentColor" viewBox="0 0 24 24"><path d="M18 14.5c1.11 0 2.11.45 2.83 1.17L22 14.5v4h-4l1.77-1.77A2.5 2.5 0 1 0 20 20h1.71A3.99 3.99 0 0 1 18 22.5c-2.21 0-4-1.79-4-4s1.79-4 4-4M20 8H4v10h8v.5c0 .5.06 1 .17 1.5H4a2 2 0 0 1-2-2V6c0-1.11.89-2 2-2h6l2 2h8a2 2 0 0 1 2 2v5a7 7 0 0 0-2-.83z"/></svg>

<svg  viewBox="0 0 24 24" fill="currentColor"><path  d="M18 14.5C19.11 14.5 20.11 14.95 20.83 15.67L22 14.5V18.5H18L19.77 16.73C19.32 16.28 18.69 16 18 16C16.62 16 15.5 17.12 15.5 18.5C15.5 19.88 16.62 21 18 21C18.82 21 19.54 20.61 20 20H21.71C21.12 21.47 19.68 22.5 18 22.5C15.79 22.5 14 20.71 14 18.5C14 16.29 15.79 14.5 18 14.5M20 8H4V18H12L12 18.5C12 19 12.06 19.5 12.17 20H4C2.89 20 2 19.1 2 18L2 6C2 4.89 2.89 4 4 4H10L12 6H20C21.1 6 22 6.89 22 8V13C21.39 12.63 20.72 12.34 20 12.17V8Z"/></svg>
